X: 169
T: Richard Brennan's Jig
T: Jig, D
L: 1/16
M: 3/4
K: D
|: B,2| A,4F2 F2E2D2| F2A2F2 F2E2F2| D2F2A2 d2A2F2| A,2C2E2 A,2C2E2| 
F4F2 F2E2D2| F2A2F2 F2E2F2| D2F2A2 d2A2F2| A,2C2E2 D4:| 
|: g2| f2e2d2 e2d2c2| d2c2d2 A2F2A2| f2e2d2 e2d2c2| d2f2b2 a4g2| 
f2e2d2 e2d2c2| d2c2d2 A2F2A2| G2F2E2 A2F2D2| A,2C2E2 D4:| 
D: Buddy MacMaster, Judique on the Floor, ACD-9020
